src/assets/article-anchor.svg

<svg fill="none" height="18" viewBox="0 0 18 18" width="18" xmlns="http://www.w3.org/2000/svg" xmlns:xlink="http://www.w3.org/1999/xlink"><linearGradient id="a" gradientUnits="userSpaceOnUse" x1="0" x2="18" y1="0" y2="18"><stop offset="0" stop-color="#fff9b0"/><stop offset=".464297" stop-color="#d3fffa"/><stop offset="1" stop-color="#ffc4fa"/></linearGradient><clipPath id="b"><path d="m0 0h18v18h-18z"/></clipPath><clipPath id="c"><path d="m4.5 4.5h9v9h-9z"/></clipPath><g clip-path="url(#b)"><circle cx="9" cy="9" fill="url(#a)" r="9"/><g clip-path="url(#c)" stroke="#181818" stroke-linecap="round" stroke-linejoin="round" stroke-width=".75"><path d="m10.875 5.625h-3.75c-.41421 0-.75.33579-.75.75v5.25c0 .4142.33579.75.75.75h3.75c.4142 0 .75-.3358.75-.75v-5.25c0-.41421-.3358-.75-.75-.75z"/><path d="m7.875 7.125h2.25"/><path d="m7.875 8.625h2.25"/><path d="m7.875 10.125h1.5"/></g></g></svg>

<svg width="18" height="18" viewBox="0 0 18 18" fill="none" xmlns="http://www.w3.org/2000/svg">
    <g clip-path="url(#clip0_17195_43717)">
        <circle cx="9" cy="9" r="9" fill="url(#paint0_linear_17195_43717)" />
        <g clip-path="url(#clip1_17195_43717)">
            <path
                d="M10.875 5.625H7.125C6.71079 5.625 6.375 5.96079 6.375 6.375V11.625C6.375 12.0392 6.71079 12.375 7.125 12.375H10.875C11.2892 12.375 11.625 12.0392 11.625 11.625V6.375C11.625 5.96079 11.2892 5.625 10.875 5.625Z"
                stroke="#181818" stroke-width="0.75" stroke-linecap="round" stroke-linejoin="round" />
            <path d="M7.875 7.125H10.125" stroke="#181818" stroke-width="0.75"
                stroke-linecap="round" stroke-linejoin="round" />
            <path d="M7.875 8.625H10.125" stroke="#181818" stroke-width="0.75"
                stroke-linecap="round" stroke-linejoin="round" />
            <path d="M7.875 10.125H9.375" stroke="#181818" stroke-width="0.75"
                stroke-linecap="round" stroke-linejoin="round" />
        </g>
    </g>
    <defs>
        <linearGradient id="paint0_linear_17195_43717" x1="0" y1="0" x2="18" y2="18"
            gradientUnits="userSpaceOnUse">
            <stop stop-color="#FFF9B0" />
            <stop offset="0.464297" stop-color="#D3FFFA" />
            <stop offset="1" stop-color="#FFC4FA" />
        </linearGradient>
        <clipPath id="clip0_17195_43717">
            <rect width="18" height="18" fill="white" />
        </clipPath>
        <clipPath id="clip1_17195_43717">
            <rect width="9" height="9" fill="white" transform="translate(4.5 4.5)" />
        </clipPath>
    </defs>
</svg>
